X: 1
T: O'Sullivan's
M: 2/4
L: 1/8
R: polka
K: Gmaj
B2G2|de/f/ gB|A2 AB|d2 BA|
B2 G2|de/f/ gB|A2 BA|1GF GA:|2GF Gg||
fa d2|e/f/e/d/ BA|B>A GE|B>A Gg|
fa d2|e/f/e/d/ BA|B>A GB/d/|1gg g>e:|2gg GA||
